;FLAVOR:Marlin
;TIME:2099
;Filament used: 1.60857m
;Layer height: 0.2
;MINX:-25.886
;MINY:-34.979
;MINZ:0.3
;MAXX:26.205
;MAXY:34.239
;MAXZ:9.9
;Generated with Cura_SteamEngine master
M140 S60
M105
M190 S60
M104 S200
M105
M109 S200
M82 ;absolute extrusion mode
G28 ;Home
G1 Z15.0 F6000 ;Move the platform down 15mm
;Prime the extruder
G92 E0
G1 F200 E3
G92 E0
G92 E0
G92 E0
G1 F1500 E-6.5
;LAYER_COUNT:49
;LAYER:0
M107
M204 S5000
M205 X30 Y30
G0 F3600 X-20.465 Y-8.545 Z0.3
M204 S800
M205 X5 Y5
;TYPE:SKIRT
G1 F1500 E0
G1 F900 X-19.341 Y-11.032 E0.1702
G1 X-18.301 Y-13.518 E0.33825
G1 X-17.309 Y-16.092 E0.51028
G1 X-16.401 Y-18.667 E0.68056
G1 X-15.582 Y-21.209 E0.84711
G1 X-14.502 Y-25.009 E1.09347
G1 X-14.28 Y-25.702 E1.13885
G1 X-14.03 Y-26.189 E1.17299
G1 X-12.941 Y-27.655 E1.28688
G1 X-11.819 Y-29.139 E1.4029
G1 X-11.124 Y-30.095 E1.47661
G1 X-10.32 Y-31.214 E1.56254
G1 X-9.927 Y-31.708 E1.60191
G1 X-9.417 Y-32.252 E1.64841
G1 X-9.027 Y-32.608 E1.68134
G1 X-8.364 Y-33.14 E1.73435
G1 X-7.314 Y-33.803 E1.81179
G1 X-6.828 Y-34.06 E1.84608
G1 X-6.252 Y-34.313 E1.88531
G1 X-5.541 Y-34.559 E1.93223
G1 X-4.889 Y-34.737 E1.97438
G1 X-4.175 Y-34.873 E2.01971
G1 X-3.671 Y-34.934 E2.05137
G1 X-3.005 Y-34.979 E2.093
G1 X-2.452 Y-34.979 E2.12748
G1 X-1.838 Y-34.931 E2.16589
G1 X-1.08 Y-34.828 E2.21359
G1 X-.494 Y-34.711 E2.25086
G1 X0.196 Y-34.51 E2.29568
G1 X0.791 Y-34.293 E2.33518
G1 X1.384 Y-34.038 E2.37543
G1 X2.192 Y-33.596 E2.43287
G1 X2.897 Y-33.119 E2.48595
G1 X3.587 Y-32.548 E2.5418
G1 X3.957 Y-32.211 E2.57301
G1 X4.617 Y-31.488 E2.63406
G1 X6.455 Y-29.426 E2.80633
G1 X8.335 Y-27.434 E2.97714
G1 X10.25 Y-25.517 E3.14612
G1 X12.507 Y-23.387 E3.33966
G1 X13.278 Y-22.636 E3.40678
G1 X13.825 Y-22.087 E3.45511
G1 X14.204 Y-21.67 E3.49025
G1 X15.318 Y-20.345 E3.59821
G1 X15.765 Y-19.796 E3.64236
G1 X16.059 Y-19.381 E3.67407
G1 X16.865 Y-18.06 E3.77058
G1 X17.156 Y-17.531 E3.80823
G1 X18.513 Y-15.076 E3.98316
G1 X19.875 Y-12.77 E4.15018
G1 X21.325 Y-10.465 E4.32
G1 X22.848 Y-8.19 E4.49074
G1 X23.904 Y-6.692 E4.60503
G1 X24.279 Y-6.17 E4.64512
G1 X24.619 Y-5.675 E4.68257
G1 X24.929 Y-5.176 E4.7192
G1 X25.269 Y-4.538 E4.76429
G1 X25.681 Y-3.495 E4.83422
G1 X25.821 Y-3.083 E4.86136
G1 X25.973 Y-2.44 E4.90256
G1 X26.081 Y-1.696 E4.94945
G1 X26.168 Y-.956 E4.99591
G1 X26.2 Y-.299 E5.03693
G1 X26.205 Y5.851 E5.42047
G1 X26.197 Y6.498 E5.46082
G1 X26.148 Y7.05 E5.49538
G1 X26.067 Y7.547 E5.52678
G1 X25.94 Y8.08 E5.56095
G1 X25.737 Y8.588 E5.59507
G1 X25.364 Y9.231 E5.64142
G1 X24.616 Y10.311 E5.72335
G1 X24.155 Y10.947 E5.77234
G1 X22.599 Y13.219 E5.94407
G1 X21.152 Y15.467 E6.11079
G1 X19.727 Y17.825 E6.28261
G1 X18.396 Y20.176 E6.45109
G1 X17.379 Y22.112 E6.58747
G1 X17.053 Y22.716 E6.63027
G1 X16.399 Y23.784 E6.70837
G1 X15.796 Y24.715 E6.77755
G1 X15.463 Y25.203 E6.81439
G1 X14.876 Y25.931 E6.87271
G1 X14.396 Y26.479 E6.91814
G1 X14.019 Y26.897 E6.95324
G1 X13.169 Y27.78 E7.02968
G1 X12.656 Y28.282 E7.07444
G1 X12.273 Y28.621 E7.10634
G1 X11.387 Y29.347 E7.17777
G1 X10.896 Y29.735 E7.2168
G1 X9.971 Y30.388 E7.28741
G1 X8.524 Y31.278 E7.39335
G1 X7.771 Y31.702 E7.44724
G1 X6.784 Y32.161 E7.51513
G1 X5.701 Y32.614 E7.58833
G1 X4.817 Y32.912 E7.64651
G1 X3.813 Y33.141 E7.71073
G1 X3.211 Y33.268 E7.7491
G1 X0.077 Y34.026 E7.95018
G1 X-.914 Y34.188 E8.0128
G1 X-1.586 Y34.239 E8.05483
G1 X-2.242 Y34.235 E8.09574
G1 X-5.118 Y33.894 E8.27635
G1 X-6.327 Y33.729 E8.35245
G1 X-7.126 Y33.608 E8.40284
G1 X-8.607 Y33.241 E8.498
G1 X-11.226 Y32.575 E8.66652
G1 X-11.965 Y32.316 E8.71536
G1 X-12.883 Y31.894 E8.77837
G1 X-14.176 Y31.186 E8.8703
G1 X-14.632 Y30.922 E8.90316
G1 X-15.183 Y30.593 E8.94318
G1 X-16.447 Y29.688 E9.04013
G1 X-17.255 Y29.072 E9.10349
G1 X-17.846 Y28.607 E9.15039
G1 X-18.639 Y27.836 E9.21936
G1 X-19.776 Y26.62 E9.32318
G1 X-20.35 Y25.979 E9.37684
G1 X-20.724 Y25.505 E9.41449
G1 X-21.734 Y24.074 E9.52372
G1 X-22.107 Y23.529 E9.56491
G1 X-22.77 Y22.315 E9.65117
G1 X-23.312 Y21.203 E9.72832
G1 X-23.627 Y20.514 E9.77556
G1 X-23.841 Y19.913 E9.81535
G1 X-24.077 Y19.014 E9.87331
G1 X-24.288 Y18.16 E9.92817
G1 X-24.484 Y17.436 E9.97495
G1 X-24.801 Y15.975 E10.06818
G1 X-25.378 Y12.983 E10.25821
G1 X-25.488 Y11.917 E10.32504
G1 X-25.57 Y8.423 E10.54299
G1 X-25.699 Y5.684 E10.71399
G1 X-25.781 Y4.647 E10.77887
G1 X-25.879 Y3.182 E10.87043
G1 X-25.886 Y2.495 E10.91328
G1 X-25.845 Y1.949 E10.94742
G1 X-25.725 Y1.415 E10.98156
G1 X-25.528 Y0.905 E11.01565
G1 X-25.098 Y0.129 E11.07098
G1 X-24.242 Y-1.308 E11.17529
G1 X-22.912 Y-3.689 E11.34537
G1 X-21.657 Y-6.094 E11.51454
G1 X-20.465 Y-8.545 E11.68451
M204 S5000
M205 X30 Y30
G0 F3600 X-20.008 Y-8.344
M204 S800
M205 X5 Y5
G1 F900 X-18.879 Y-10.843 E11.85552
G1 X-17.828 Y-13.356 E12.02539
G1 X-16.841 Y-15.914 E12.19638
G1 X-15.931 Y-18.495 E12.36705
G1 X-15.105 Y-21.06 E12.5351
G1 X-14.028 Y-24.846 E12.78057
G1 X-13.806 Y-25.539 E12.82595
G1 X-13.566 Y-25.989 E12.85776
G1 X-12.543 Y-27.352 E12.96404
G1 X-11.422 Y-28.835 E13.07997
G1 X-10.72 Y-29.801 E13.15444
G1 X-9.914 Y-30.922 E13.24054
G1 X-9.549 Y-31.381 E13.27712
G1 X-9.065 Y-31.898 E13.32128
G1 X-8.694 Y-32.235 E13.35254
G1 X-8.054 Y-32.747 E13.40365
G1 X-7.058 Y-33.373 E13.47701
G1 X-6.601 Y-33.614 E13.50923
G1 X-6.057 Y-33.853 E13.54629
G1 X-5.386 Y-34.084 E13.59054
G1 X-4.79 Y-34.247 E13.62908
G1 X-4.091 Y-34.38 E13.67345
G1 X-3.489 Y-34.447 E13.71122
G1 X-2.973 Y-34.48 E13.74347
G1 X-2.467 Y-34.48 E13.77502
G1 X-1.905 Y-34.435 E13.81019
G1 X-1.147 Y-34.332 E13.85789
G1 X-.602 Y-34.223 E13.89255
G1 X0.047 Y-34.033 E13.93472
G1 X0.615 Y-33.825 E13.97245
G1 X1.16 Y-33.591 E14.00943
G1 X1.942 Y-33.163 E14.06503
G1 X2.61 Y-32.71 E14.11536
G1 X3.26 Y-32.17 E14.16806
G1 X3.875 Y-31.58 E14.22121
G1 X4.244 Y-31.156 E14.25626
G1 X6.105 Y-29.068 E14.43069
G1 X7.972 Y-27.09 E14.60031
G1 X9.89 Y-25.17 E14.76956
G1 X12.164 Y-23.024 E14.96455
G1 X12.929 Y-22.278 E15.03119
G1 X13.471 Y-21.735 E15.07903
G1 X13.831 Y-21.337 E15.1125
G1 X14.935 Y-20.024 E15.21948
G1 X15.378 Y-19.481 E15.26318
G1 X16.438 Y-17.8 E15.38712
G1 X16.718 Y-17.289 E15.42345
G1 X18.062 Y-14.859 E15.59663
G1 X19.453 Y-12.502 E15.76731
G1 X20.918 Y-10.174 E15.93884
G1 X22.433 Y-7.911 E16.10867
G1 X23.477 Y-6.429 E16.22173
G1 X23.873 Y-5.878 E16.26404
G1 X24.207 Y-5.392 E16.30082
G1 X24.494 Y-4.928 E16.33484
G1 X24.811 Y-4.338 E16.37661
G1 X25.213 Y-3.319 E16.44492
G1 X25.478 Y-2.368 E16.50649
G1 X25.586 Y-1.624 E16.55337
G1 X25.671 Y-.899 E16.5989
G1 X25.701 Y-.285 E16.63723
G1 X25.705 Y5.851 E17.01989
G1 X25.697 Y6.491 E17.05981
G1 X25.574 Y7.467 E17.12115
G1 X25.453 Y7.962 E17.15293
G1 X25.145 Y8.629 E17.19875
G1 X24.817 Y9.156 E17.23746
G1 X24.207 Y10.024 E17.30362
G1 X23.742 Y10.664 E17.35296
G1 X22.193 Y12.927 E17.52398
G1 X20.72 Y15.216 E17.69373
G1 X19.296 Y17.573 E17.86546
G1 X17.945 Y19.959 E18.03646
G1 X16.936 Y21.879 E18.17172
G1 X16.613 Y22.479 E18.21421
G1 X15.974 Y23.52 E18.29039
G1 X15.377 Y24.443 E18.35894
G1 X15.051 Y24.921 E18.39502
G1 X14.493 Y25.61 E18.45031
G1 X14.021 Y26.149 E18.49499
G1 X13.648 Y26.562 E18.5297
G1 X12.81 Y27.433 E18.60508
G1 X12.307 Y27.923 E18.64887
G1 X11.878 Y28.3 E18.68448
G1 X11.071 Y28.959 E18.74946
G1 X10.586 Y29.343 E18.78804
G1 X9.686 Y29.977 E18.85669
G1 X8.266 Y30.85 E18.96064
G1 X7.527 Y31.266 E19.01353
G1 X6.579 Y31.705 E19.07868
G1 X5.509 Y32.152 E19.151
G1 X4.706 Y32.425 E19.20389
G1 X3.702 Y32.654 E19.26811
G1 X3.088 Y32.783 E19.30724
G1 X-0.041 Y33.54 E19.508
G1 X-.987 Y33.693 E19.56776
G1 X-1.61 Y33.739 E19.60672
G1 X-2.234 Y33.736 E19.64563
G1 X-5.055 Y33.398 E19.82282
G1 X-6.259 Y33.234 E19.8986
G1 X-7.051 Y33.114 E19.94855
G1 X-8.456 Y32.763 E20.03886
G1 X-11.103 Y32.091 E20.20917
G1 X-11.781 Y31.851 E20.25403
G1 X-12.672 Y31.441 E20.31519
G1 X-13.934 Y30.749 E20.40495
G1 X-14.381 Y30.489 E20.4372
G1 X-14.926 Y30.164 E20.47677
G1 X-16.151 Y29.285 E20.5708
G1 X-16.951 Y28.674 E20.63357
G1 X-17.536 Y28.214 E20.67998
G1 X-18.281 Y27.488 E20.74486
G1 X-19.41 Y26.279 E20.84802
G1 X-19.977 Y25.646 E20.90101
G1 X-20.325 Y25.203 E20.93614
G1 X-21.325 Y23.786 E21.0443
G1 X-21.694 Y23.246 E21.08509
G1 X-22.327 Y22.084 E21.16761
G1 X-22.863 Y20.984 E21.24392
G1 X-23.172 Y20.307 E21.29033
G1 X-23.357 Y19.786 E21.32481
G1 X-23.593 Y18.887 E21.38277
G1 X-23.816 Y17.989 E21.44047
G1 X-24.001 Y17.305 E21.48466
G1 X-24.312 Y15.871 E21.57617
G1 X-24.887 Y12.889 E21.76556
G1 X-24.99 Y11.875 E21.82912
G1 X-25.07 Y8.389 E22.04657
G1 X-25.198 Y5.684 E22.21545
G1 X-25.283 Y4.608 E22.28277
G1 X-25.38 Y3.149 E22.37395
G1 X-25.386 Y2.496 E22.41468
G1 X-25.345 Y1.989 E22.4464
G1 X-25.225 Y1.493 E22.47822
G1 X-24.957 Y0.89 E22.51938
G1 X-24.664 Y0.378 E22.55616
G1 X-23.808 Y-1.059 E22.66047
G1 X-22.473 Y-3.451 E22.83131
G1 X-21.219 Y-5.853 E23.00029
G1 X-20.008 Y-8.344 E23.17302
M204 S5000
M205 X30 Y30
G0 F3600 X-21.896 Y2.624
M204 S800
M205 X5 Y5
;TYPE:SUPPORT
G1 F900 X-21.657 Y2.706 E23.18877
G1 X-21.187 Y3.266 E23.23437
G1 X-20.709 Y3.437 E23.26603
G1 X-20.776 Y3.485 E23.27117
G1 X-21.037 Y3.394 E23.2884
G1 X-21.457 Y3.69 E23.32045
G1 X-21.459 Y3.974 E23.33816
G1 X-21.532 Y4.026 E23.34375
G1 X-21.531 Y3.493 E23.37699
G1 X-21.896 Y2.878 E23.42159
G1 X-21.896 Y2.624 E23.43743
M204 S5000
M205 X30 Y30
G0 F3600 X-17.801 Y4.383
M204 S800
M205 X5 Y5
G1 F900 X-17.512 Y4.357 E23.45552
G1 X-17.277 Y4.44 E23.47107
G1 X-17.276 Y4.688 E23.48653
G1 X-17.399 Y4.961 E23.5052
G1 X-17.801 Y4.383 E23.54911
M204 S5000
M205 X30 Y30
G1 F1500 E17.04911
G0 F3600 X-20.571 Y3.695
G0 X-21.297 Y11.539
G0 X-21.149 Y13.854
G0 X-20.796 Y15.707
G0 X-19.969 Y18.847
M204 S800
M205 X5 Y5
G1 F1500 E23.54911
G1 F900 X-19.943 Y18.878 E23.55163
G1 X-19.927 Y18.887 E23.55278
G1 X-19.407 Y19.993 E23.629
G1 X-19.374 Y20.163 E23.63979
G1 X-19.497 Y19.917 E23.65695
G1 X-19.972 Y18.912 E23.72627
G1 X-19.969 Y18.847 E23.73033
M204 S5000
M205 X30 Y30
G1 F1500 E17.23033
G0 F3600 X-18.589 Y21.17
G0 X-17.131 Y23.234
G0 X-16.262 Y24.226
G0 X-14.574 Y25.809
G0 X-12.677 Y27.187
G0 X-10.631 Y28.311
G0 X-8.955 Y28.999
G0 X-6.516 Y29.682
G0 X-4.006 Y30.025
G0 X-1.578 Y30.03
G0 X0.502 Y29.766
G0 X3.79 Y29.021
M204 S800
M205 X5 Y5
G1 F1500 E23.73033
G1 F900 X4.645 Y28.683 E23.78766
G1 X4.801 Y28.661 E23.79749
G1 X4.487 Y28.797 E23.81883
G1 X3.931 Y29.019 E23.85616
G1 X3.79 Y29.021 E23.86496
M204 S5000
M205 X30 Y30
G1 F1500 E17.36496
G0 F3600 X0.734 Y29.736
G0 X-1.578 Y30.03
G0 X-4.006 Y30.025
G0 X-6.516 Y29.682
G0 X-8.955 Y28.999
G0 X-11.288 Y27.984
G0 X-12.677 Y27.187
G0 X-14.574 Y25.809
G0 X-16.262 Y24.226
G0 X-17.547 Y22.69
G0 X-18.589 Y21.17
G0 X-19.985 Y18.382
G0 X-20.712 Y16.142
G0 X-21.149 Y13.854
G0 X-21.297 Y11.539
G0 X-21.329 Y4.238
G0 X-8.445 Y-24.121
G0 X-6.613 Y-24.621
G0 X-4.652 Y-24.929
G0 X-2.105 Y-25.011
G0 X-.859 Y-24.931
G0 X1.636 Y-24.5
G0 X3.07 Y-24.088
G0 X4.915 Y-23.37
G0 X6.997 Y-22.261
G0 X8.93 Y-20.89
G0 X10.664 Y-19.29
G0 X11.963 Y-17.764
G0 X13.315 Y-15.741
G0 X14.465 Y-13.386
G0 X15.032 Y-11.718
G0 X16.057 Y-6.929
M204 S800
M205 X5 Y5
G1 F1500 E23.86496
G1 F900 X16.246 Y-6.752 E23.8811
G1 X17.17 Y-6.752 E23.93873
G1 X17.17 Y-6.584 E23.9492
G1 X17.528 Y-6.042 E23.98971
G1 X19.411 Y-5.242 E24.1173
G1 X20.046 Y-4.813 E24.16509
G1 X20.559 Y-4.373 E24.20724
G1 X20.968 Y-3.928 E24.24493
G1 X21.329 Y-3.416 E24.284
G1 X21.627 Y-2.91 E24.32062
G1 X21.89 Y-2.24 E24.36551
G1 X22.032 Y-1.83 E24.39257
G1 X22.206 Y-.468 E24.4782
G1 X22.205 Y6.51 E24.91336
G1 X22.149 Y6.839 E24.93418
G1 X21.981 Y7.13 E24.95513
G1 X21.731 Y7.343 E24.97561
G1 X21.409 Y7.456 E24.99689
G1 X21.082 Y7.456 E25.01729
G1 X20.778 Y7.346 E25.03745
G1 X20.517 Y7.132 E25.0585
G1 X20.364 Y6.87 E25.07742
G1 X20.351 Y6.833 E25.07986
G1 X20.295 Y6.486 E25.10178
G1 X20.294 Y-.503 E25.53764
G1 X20.079 Y-2.351 E25.65366
G1 X19.546 Y-2.8 E25.69712
G1 X16.262 Y-2.609 E25.90227
G1 X16.083 Y-2.419 E25.91855
G1 X16.083 Y-6.523 E26.17448
G1 X16.057 Y-6.929 E26.19985
M204 S5000
M205 X30 Y30
G1 F1500 E19.69985
G0 F3600 X15.096 Y-11.532
G0 X14.315 Y-13.704
G0 X12.61 Y-17.348
M204 S800
M205 X5 Y5
G1 F1500 E26.19985
G1 F900 X12.669 Y-17.278 E26.20556
G1 X12.707 Y-17.212 E26.21031
G1 X12.61 Y-17.348 E26.22073
M204 S5000
M205 X30 Y30
G1 F1500 E19.72073
G0 F3600 X9.791 Y-20.145
G0 X8.93 Y-20.89
G0 X6.997 Y-22.261
G0 X4.915 Y-23.37
G0 X3.07 Y-24.088
G0 X0.989 Y-24.646
G0 X-1.451 Y-24.977
G0 X-3.302 Y-25.004
G0 X-4.517 Y-24.937
G0 X-10.483 Y-23.929
M204 S800
M205 X5 Y5
G1 F1500 E26.22073
G1 F900 X-10.618 Y-24.071 E26.23295
G1 X-9.29 Y-24.625 E26.32268
G1 X-8.309 Y-25.757 E26.4161
G1 X-8.04 Y-27.045 E26.49815
G1 X-7.739 Y-27.816 E26.54977
G1 X-7.511 Y-28.267 E26.58129
G1 X-7.069 Y-28.902 E26.62953
G1 X-6.757 Y-29.273 E26.65977
G1 X-6.253 Y-29.736 E26.70245
G1 X-5.827 Y-30.057 E26.73571
G1 X-5.174 Y-30.43 E26.78261
G1 X-4.688 Y-30.642 E26.81567
G1 X-4.056 Y-30.837 E26.85692
G1 X-3.435 Y-30.949 E26.89627
G1 X-2.723 Y-30.997 E26.94078
G1 X-2.204 Y-30.964 E26.97321
G1 X-1.515 Y-30.856 E27.0167
G1 X-.971 Y-30.694 E27.0521
G1 X-.369 Y-30.454 E27.09251
G1 X0.202 Y-30.137 E27.13324
G1 X0.61 Y-29.85 E27.16435
G1 X1.263 Y-29.267 E27.21894
G1 X1.517 Y-28.959 E27.24384
G1 X2.035 Y-28.226 E27.29981
G1 X2.204 Y-27.91 E27.32216
G1 X2.493 Y-27.172 E27.37159
G1 X2.615 Y-26.77 E27.39779
G1 X2.745 Y-25.818 E27.45771
G1 X3.132 Y-25.317 E27.49719
G1 X3.172 Y-25.301 E27.49987
G1 X3.28 Y-24.592 E27.5446
G1 X3.596 Y-24.193 E27.57634
G1 X3.162 Y-24.358 E27.6053
G1 X2.367 Y-24.604 E27.65719
G1 X1.703 Y-24.778 E27.7
G1 X1.043 Y-24.927 E27.7422
G1 X-.667 Y-25.191 E27.8501
G1 X-.38 Y-25.184 E27.868
G1 X0.152 Y-25.612 E27.91058
G1 X0.706 Y-28.476 E28.0925
G1 X0.372 Y-29.071 E28.13505
G1 X-1.688 Y-29.838 E28.27214
G1 X-2.749 Y-29.964 E28.33877
G1 X-3.869 Y-29.82 E28.40919
G1 X-5.855 Y-29.041 E28.54223
G1 X-6.183 Y-28.446 E28.5846
G1 X-5.626 Y-25.625 E28.76392
G1 X-5.097 Y-25.199 E28.80628
G1 X-4.743 Y-25.205 E28.82836
G1 X-5.899 Y-25.025 E28.90132
G1 X-6.669 Y-24.9 E28.94997
G1 X-7.377 Y-24.738 E28.99526
G1 X-8.685 Y-24.355 E29.08026
G1 X-8.724 Y-24.208 E29.08974
G1 X-9.187 Y-24.053 E29.12019
G1 X-9.317 Y-23.524 E29.15416
G1 X-8.993 Y-23.18 E29.18363
G1 X-9.01 Y-23.119 E29.18758
G1 X-9.409 Y-23.54 E29.22375
G1 X-10.07 Y-23.809 E29.26826
G1 X-10.483 Y-23.929 E29.29508
M204 S5000
M205 X30 Y30
G0 F3600 X-9.999 Y-23.993
M204 S800
M205 X5 Y5
G1 F900 X-9.999 Y-24.112 E29.3025
M204 S5000
M205 X30 Y30
G0 F3600 X-7.913 Y-26.664
M204 S800
M205 X5 Y5
G1 F900 X-6.033 Y-26.664 E29.41974
M204 S5000
M205 X30 Y30
G0 F3600 X-6.666 Y-25.102
M204 S800
M205 X5 Y5
G1 F900 X-6.666 Y-29.071 E29.66726
M204 S5000
M205 X30 Y30
G0 F3600 X-5.528 Y-29.997
M204 S800
M205 X5 Y5
G1 F900 X-3.965 Y-29.997 E29.76473
M204 S5000
M205 X30 Y30
G0 F3600 X-3.333 Y-30.09
M204 S800
M205 X5 Y5
G1 F900 X-3.333 Y-30.756 E29.80627
M204 S5000
M205 X30 Y30
G0 F3600 X-1.539 Y-29.997
M204 S800
M205 X5 Y5
G1 F900 X0.04 Y-29.997 E29.90474
M204 S5000
M205 X30 Y30
G0 F3600 X0.00 Y-30.019
M204 S800
M205 X5 Y5
G1 F900 X0.00 Y-29.424 E29.94184
M204 S5000
M205 X30 Y30
G0 F3600 X0.558 Y-26.664
M204 S800
M205 X5 Y5
G1 F900 X2.427 Y-26.664 E30.0584
M204 S5000
M205 X30 Y30
G1 F1500 E23.5584
G0 F3600 X9.791 Y-20.145
G0 X10.664 Y-19.29
G0 X11.963 Y-17.764
G0 X13.315 Y-15.741
G0 X14.465 Y-13.386
G0 X16.665 Y-6.552
M204 S800
M205 X5 Y5
G1 F1500 E30.0584
G1 F900 X16.665 Y-2.833 E30.29032
M204 S5000
M205 X30 Y30
G0 F3600 X16.283 Y-3.332
M204 S800
M205 X5 Y5
G1 F900 X21.144 Y-3.332 E30.59347
M204 S5000
M205 X30 Y30
G0 F3600 X19.998 Y-2.681
M204 S800
M205 X5 Y5
G1 F900 X19.998 Y-4.59 E30.71252
M204 S5000
M205 X30 Y30
G0 F3600 X20.494 Y0.00
M204 S800
M205 X5 Y5
G1 F900 X22.005 Y0.00 E30.80675
M204 S5000
M205 X30 Y30
G0 F3600 X22.005 Y3.333
M204 S800
M205 X5 Y5
G1 F900 X20.494 Y3.333 E30.90098
M204 S5000
M205 X30 Y30
G0 F3600 X20.526 Y6.666
M204 S800
M205 X5 Y5
G1 F900 X21.975 Y6.666 E30.99134
M204 S5000
M205 X30 Y30
G1 F1500 E24.49134
;MESH:Vorhang.stl
G0 F3600 X15.634 Y13.939
G0 X14.203 Y13.842
G0 X11.772 Y19.119
G0 X11.119 Y20.279
G0 X9.749 Y22.137
G0 X9.004 Y22.956
G0 X8.131 Y23.787
G0 X7.226 Y24.54
G0 X5.797 Y25.5
G0 X2.317 Y27.571
G0 X2.384 Y27.645
M204 S800
M205 X5 Y5
;TYPE:WALL-INNER
G1 F1500 E30.99134
