;FLAVOR:Marlin
;TIME:2055
;Filament used: 1.67288m
;Layer height: 0.2
;MINX:-24.75
;MINY:-32.499
;MINZ:0.3
;MAXX:24.75
;MAXY:32.498
;MAXZ:6.9
;Generated with Cura_SteamEngine master
M140 S60
M105
M190 S60
M104 S200
M105
M109 S200
M82 ;absolute extrusion mode
G28 ;Home
G1 Z15.0 F6000 ;Move the platform down 15mm
;Prime the extruder
G92 E0
G1 F200 E3
G92 E0
G92 E0
G92 E0
G1 F1500 E-6.5
;LAYER_COUNT:34
;LAYER:0
M107
M204 S800
M205 X5 Y5
G0 F3600 X17.426 Y-4.01 Z0.3
;TYPE:SUPPORT
G1 F1500 E0
G1 F900 X17.426 Y-6.239 E0.13901
G1 X17.473 Y-6.192 E0.14315
G1 X19.612 Y-6.059 E0.2768
G1 X20.199 Y-5.96 E0.31393
G1 X20.757 Y-5.798 E0.35016
G1 X21.331 Y-5.557 E0.38899
G1 X21.854 Y-5.267 E0.42628
G1 X22.332 Y-4.929 E0.46279
G1 X22.781 Y-4.529 E0.50029
G1 X23.173 Y-4.089 E0.53704
G1 X23.522 Y-3.6 E0.57451
G1 X23.568 Y-3.522 E0.58015
G1 X23.828 Y-3.041 E0.61425
G1 X24.014 Y-2.587 E0.64485
G1 X24.188 Y-2.03 E0.68124
G1 X24.305 Y-1.399 E0.72126
G1 X24.338 Y-.809 E0.75811
G1 X24.345 Y0.289 E0.82659
G1 X24.344 Y6.23 E1.19708
G1 X24.273 Y6.575 E1.21905
G1 X24.094 Y6.843 E1.23915
G1 X23.814 Y7.027 E1.26004
G1 X23.5 Y7.089 E1.28
G1 X23.18 Y7.025 E1.30035
G1 X22.906 Y6.844 E1.32083
G1 X22.722 Y6.567 E1.34157
G1 X22.655 Y6.233 E1.36282
G1 X22.656 Y-.765 E1.79923
G1 X22.611 Y-1.312 E1.83346
G1 X22.479 Y-1.872 E1.86934
G1 X22.259 Y-2.411 E1.90564
G1 X21.96 Y-2.899 E1.94134
G1 X21.573 Y-3.345 E1.97816
G1 X21.165 Y-3.691 E2.01152
G1 X20.101 Y-4.365 E2.09007
G1 X19.465 Y-4.384 E2.12975
G1 X18.889 Y-4.066 E2.17078
G1 X17.482 Y-4.066 E2.25853
G1 X17.426 Y-4.01 E2.26346
G0 F3600 X17.4 Y11.708
G1 F900 X17.455 Y11.768 E2.26854
G1 X19.605 Y11.939 E2.40304
G1 X20.194 Y12.039 E2.4403
G1 X20.769 Y12.205 E2.47762
G1 X21.325 Y12.439 E2.51524
G1 X21.844 Y12.726 E2.55223
G1 X22.334 Y13.074 E2.58971
G1 X22.791 Y13.481 E2.62787
G1 X23.169 Y13.905 E2.6633
G1 X23.535 Y14.422 E2.7028
G1 X23.804 Y14.907 E2.73739
G1 X23.996 Y15.352 E2.76761
G1 X24.191 Y15.981 E2.80868
G1 X24.304 Y16.603 E2.8481
G1 X24.344 Y17.255 E2.88884
G1 X24.344 Y24.234 E3.32407
G1 X24.272 Y24.577 E3.34593
G1 X24.094 Y24.842 E3.36583
G1 X23.818 Y25.028 E3.38659
G1 X23.493 Y25.089 E3.40721
G1 X23.174 Y25.023 E3.42753
G1 X22.909 Y24.845 E3.44743
G1 X22.724 Y24.57 E3.4681
G1 X22.655 Y24.226 E3.48998
G1 X22.656 Y17.235 E3.92596
G1 X22.612 Y16.69 E3.96006
G1 X22.478 Y16.125 E3.99627
G1 X22.26 Y15.596 E4.03195
G1 X21.956 Y15.105 E4.06797
G1 X21.584 Y14.663 E4.104
G1 X21.161 Y14.305 E4.13855
G1 X20.654 Y13.991 E4.17575
G1 X20.133 Y13.775 E4.21092
G1 X19.564 Y13.634 E4.24748
G1 X17.819 Y13.528 E4.3565
G1 X17.294 Y13.933 E4.39785
G1 X17.249 Y13.933 E4.40066
G1 X17.264 Y13.854 E4.40567
G1 X17.4 Y11.708 E4.53977
G1 F1500 E-1.96023
G0 F3600 X17.14 Y-6.767
G0 X16.978 Y-9.248
G0 X16.526 Y-11.704
G0 X15.769 Y-14.128
G0 X14.792 Y-16.299
G0 X13.5 Y-18.44
G0 X11.925 Y-20.451
G0 X10.164 Y-22.206
G0 X8.194 Y-23.746
G0 X6.635 Y-24.699
G0 X2.373 Y-26.814
G1 F1500 E4.53977
G1 F900 X1.455 Y-27.071 E4.59922
G1 X0.248 Y-27.328 E4.67618
G1 X-1.027 Y-27.52 E4.75659
G1 X-2.377 Y-27.635 E4.84108
G1 X-3.555 Y-27.664 E4.91457
G1 X-5.019 Y-27.611 E5.00593
G1 X-6.085 Y-27.504 E5.07274
G1 X-7.636 Y-27.254 E5.17071
G1 X-8.574 Y-27.041 E5.2307
G1 X-9.511 Y-26.765 E5.29161
G1 X-10.304 Y-26.517 E5.34343
G1 X-9.379 Y-26.928 E5.40655
G1 X-8.974 Y-27.38 E5.4444
G1 X-8.554 Y-28.697 E5.53061
G1 X-8.274 Y-29.308 E5.57252
G1 X-7.99 Y-29.781 E5.60693
G1 X-7.615 Y-30.266 E5.64516
G1 X-7.225 Y-30.678 E5.68054
G1 X-6.743 Y-31.086 E5.71992
G1 X-6.203 Y-31.442 E5.76026
G1 X-5.737 Y-31.684 E5.793
G1 X-5.164 Y-31.903 E5.83126
G1 X-4.584 Y-32.055 E5.86865
G1 X-3.989 Y-32.143 E5.90616
G1 X-3.473 Y-32.167 E5.93837
G1 X-2.834 Y-32.124 E5.97831
G1 X-2.186 Y-32.004 E6.01941
G1 X-1.649 Y-31.84 E6.05443
G1 X-1.615 Y-31.827 E6.0567
G1 X-1.087 Y-31.598 E6.09259
G1 X-.562 Y-31.301 E6.13021
G1 X-0.081 Y-30.953 E6.16723
G1 X0.352 Y-30.554 E6.20395
G1 X0.773 Y-30.079 E6.24353
G1 X1.097 Y-29.613 E6.27893
G1 X1.394 Y-29.067 E6.31769
G1 X1.625 Y-28.503 E6.3557
G1 X1.96 Y-27.374 E6.42914
G1 X2.373 Y-26.814 E6.47253
G1 F1500 E-0.02747
G0 F3600 X-2.393 Y-27.349
G0 X-3.554 Y-27.379
G0 X-6.048 Y-27.221
G0 X-8.502 Y-26.764
G0 X-10.424 Y-26.18
G0 X-11.965 Y-25.271
G1 F1500 E6.47253
G1 F900 X-12.317 Y-25.397 E6.49585
G1 X-12.465 Y-25.554 E6.5093
G1 X-11.594 Y-25.943 E6.56879
G1 X-11.625 Y-25.813 E6.57713
G1 X-11.868 Y-25.717 E6.59342
G1 X-11.965 Y-25.271 E6.62188
G0 F3600 X-23.846 Y1.89
G1 F900 X-24.18 Y2.127 E6.64742
G1 X-24.343 Y1.771 E6.67184
G1 X-24.343 Y1.547 E6.68581
G1 X-24.128 Y1.625 E6.70007
G1 X-23.846 Y1.89 E6.72421
G1 F1500 E0.22421
G0 F3600 X-11.322 Y-25.833
G0 X-6.666 Y-27.613
G1 F1500 E6.72421
G1 F900 X-6.666 Y-30.889 E6.92851
G0 F3600 X-7.569 Y-29.997
G1 F900 X0.578 Y-29.997 E7.43658
G0 F3600 X0.00 Y-30.607
G1 F900 X0.00 Y-27.568 E7.6261
G0 F3600 X-3.333 Y-27.859
G1 F900 X-3.333 Y-31.957 E7.88166
G1 F1500 E1.38166
G0 F3600 X8.194 Y-23.746
G0 X10.164 Y-22.206
G0 X11.925 Y-20.451
G0 X13.5 Y-18.44
G0 X14.545 Y-16.707
G0 X19.998 Y-5.791
G1 F1500 E7.88166
G1 F900 X19.998 Y-4.569 E7.95787
G0 F3600 X21.847 Y-3.332
G1 F900 X23.444 Y-3.332 E8.05746
G0 F3600 X23.331 Y-3.523
G1 F900 X23.331 Y6.851 E8.70441
G0 F3600 X23.028 Y6.666
G1 F900 X23.97 Y6.666 E8.76316
G0 F3600 X24.144 Y3.333
G1 F900 X22.856 Y3.333 E8.84348
G0 F3600 X22.856 Y0.00
G1 F900 X24.144 Y0.00 E8.9238
G0 F3600 X19.998 Y12.208
G1 F900 X19.998 Y13.536 E9.00662
G0 F3600 X17.904 Y13.332
G1 F900 X22.325 Y13.332 E9.28233
G0 F3600 X23.331 Y14.479
G1 F900 X23.331 Y24.851 E9.92915
G0 F3600 X22.856 Y23.331
G1 F900 X24.144 Y23.331 E10.00948
G0 F3600 X24.144 Y19.998
G1 F900 X22.856 Y19.998 E10.0898
G0 F3600 X22.811 Y16.665
G1 F900 X24.108 Y16.665 E10.17068
G0 F3600 X17.745 Y13.332
G1 F900 X17.498 Y13.332 E10.18609
G1 F1500 E3.68609
;MESH:Haken-gross2.stl
G0 F3600 X15.554 Y13.647
G0 X13.994 Y18.174
G0 X12.995 Y20.299
G0 X11.724 Y22.305
G0 X10.217 Y24.128
G0 X8.49 Y25.748
G0 X6.575 Y27.139
G0 X4.5 Y28.279
G0 X3.044 Y29.006
G0 X0.614 Y29.809
G0 X0.558 Y29.727
;TYPE:WALL-INNER
G1 F1500 E10.18609
G1 F900 X0.626 Y29.607 E10.19469
G1 X1.006 Y29.573 E10.21848
G1 X2.341 Y29.2 E10.30493
G1 X2.86 Y29.055 E10.33853
G1 X2.943 Y28.941 E10.34733
G1 X3.013 Y28.847 E10.35463
G1 X3.149 Y28.792 E10.36378
G1 X4.484 Y28.243 E10.4538
G1 X5.147 Y27.916 E10.4999
G1 X5.215 Y27.877 E10.50479
G1 X6.554 Y27.106 E10.60115
G1 X7.153 Y26.704 E10.64614
G1 X7.331 Y26.585 E10.65949
G1 X8.465 Y25.718 E10.74851
G1 X8.935 Y25.305 E10.78753
G1 X9.315 Y24.97 E10.81912
G1 X10.188 Y24.101 E10.89594
G1 X11.061 Y23.1 E10.97877
G1 X11.692 Y22.282 E11.0432
G1 X12.538 Y21.011 E11.13841
G1 X12.96 Y20.281 E11.191
G1 X13.957 Y18.16 E11.33715
G1 X14.687 Y15.919 E11.48414
G1 X15.129 Y13.603 E11.63117
G1 X15.275 Y11.273 E11.77676
G1 X15.275 Y11.233 E11.77926
G1 X15.275 Y-6.726 E12.89923
G1 X15.274 Y-6.776 E12.90235
G1 X15.207 Y-7.803 E12.96653
G1 X15.125 Y-9.034 E13.04347
G1 X15.113 Y-9.214 E13.05472
G1 X14.702 Y-11.27 E13.18548
G1 X14.642 Y-11.566 E13.20431
G1 X14.518 Y-12.347 E13.25363
G1 X14.247 Y-13.146 E13.30624
G1 X14.214 Y-13.241 E13.31251
G1 X13.887 Y-14.199 E13.37564
G1 X13.755 Y-14.25 E13.38447
G1 X13.647 Y-14.627 E13.40892
G1 X13.551 Y-14.822 E13.42248
G1 X13.291 Y-15.346 E13.45896
G1 X13.252 Y-15.424 E13.4644
G1 X12.804 Y-16.327 E13.52726
G1 X12.583 Y-16.414 E13.54207
G1 X12.33 Y-16.804 E13.57106
G1 X11.875 Y-17.503 E13.62308
G1 X11.691 Y-17.785 E13.64407
G1 X11.659 Y-17.827 E13.64737
G1 X11.346 Y-18.241 E13.67973
G1 X10.505 Y-19.23 E13.76069
G1 X10.186 Y-19.604 E13.79135
G1 X10.149 Y-19.642 E13.79466
G1 X9.714 Y-20.089 E13.83355
G1 X8.906 Y-20.82 E13.90151
G1 X8.463 Y-21.222 E13.93881
G1 X8.401 Y-21.271 E13.94374
G1 X7.851 Y-21.707 E13.98751
G1 X7.125 Y-22.211 E14.04262
G1 X6.552 Y-22.609 E14.08613
G1 X6.479 Y-22.653 E14.09145
G1 X5.792 Y-23.066 E14.14144
G1 X5.759 Y-23.083 E14.14375
G1 X4.822 Y-23.569 E14.20958
G1 X4.481 Y-23.746 E14.23354
G1 X4.394 Y-23.784 E14.23946
G1 X3.573 Y-24.142 E14.29531
G1 X3.114 Y-24.309 E14.32577
G1 X2.284 Y-24.613 E14.3809
G1 X2.197 Y-24.638 E14.38654
G1 X1.711 Y-24.78 E14.41812
G1 X0.931 Y-24.978 E14.4683
G1 X0.667 Y-25.046 E14.48531
G1 X-0.004 Y-25.198 E14.52821
G1 X-.125 Y-25.216 E14.53584
G1 X-1.19 Y-25.383 E14.60307
G1 X-1.26 Y-25.389 E14.60745
G1 X-2.348 Y-25.491 E14.6756
G1 X-2.472 Y-25.494 E14.68333
G1 X-3.551 Y-25.521 E14.75064
G1 X-3.652 Y-25.524 E14.75695
G1 X-4.71 Y-25.488 E14.82296
G1 X-4.852 Y-25.474 E14.83186
G1 X-5.815 Y-25.375 E14.89223
G1 X-6.113 Y-25.344 E14.91092
G1 X-7.054 Y-25.186 E14.97042
G1 X-7.21 Y-25.15 E14.98041
G1 X-8.038 Y-24.955 E15.03346
G1 X-8.528 Y-24.84 E15.06484
G1 X-8.896 Y-24.729 E15.08881
G1 X-9.349 Y-24.591 E15.11835
G1 X-9.675 Y-24.933 E15.14781
G1 X-9.475 Y-24.995 E15.15015
G1 X-9.02 Y-25.137 E15.17539
G1 X-8.648 Y-25.246 E15.19592
G1 X-8.142 Y-25.396 E15.22485
G1 X-7.312 Y-25.583 E15.27245
G1 X-7.124 Y-25.613 E15.28297
G1 X-6.182 Y-25.766 E15.33409
G1 X-5.861 Y-25.819 E15.35191
G1 X-4.898 Y-25.914 E15.4055
G1 X-4.726 Y-25.92 E15.415
G1 X-3.669 Y-25.959 E15.47218
G1 X-3.54 Y-25.964 E15.47936
G1 X-2.461 Y-25.936 E15.53893
G1 X-2.312 Y-25.924 E15.54719
G1 X-1.219 Y-25.83 E15.60714
G1 X-1.125 Y-25.816 E15.61244
G1 X-0.057 Y-25.655 E15.67179
G1 X0.086 Y-25.625 E15.6799
G1 X0.759 Y-25.481 E15.7177
G1 X1.043 Y-25.42 E15.73404
G1 X1.828 Y-25.201 E15.77936
G1 X2.32 Y-25.063 E15.80735
G1 X2.427 Y-25.026 E15.81364
G1 X3.269 Y-24.734 E15.86307
G1 X3.738 Y-24.537 E15.89107
G1 X4.57 Y-24.188 E15.93993
G1 X4.673 Y-24.137 E15.94628
G1 X5.026 Y-23.963 E15.96786
G1 X5.954 Y-23.46 E16.02497
G1 X6.001 Y-23.433 E16.02791
G1 X6.706 Y-23.031 E16.07158
G1 X6.791 Y-22.975 E16.0772
G1 X7.385 Y-22.586 E16.11679
G1 X8.104 Y-22.044 E16.1661
G1 X8.673 Y-21.616 E16.20433
G1 X8.745 Y-21.555 E16.20954
G1 X9.212 Y-21.159 E16.24365
G1 X10.006 Y-20.392 E16.30401
G1 X10.464 Y-19.949 E16.3382
G1 X10.508 Y-19.902 E16.34177
G1 X10.853 Y-19.527 E16.37027
G1 X11.675 Y-18.507 E16.4422
G1 X12.009 Y-18.093 E16.47085
G1 X12.047 Y-18.04 E16.47446
G1 X12.254 Y-17.75 E16.49428
G1 X12.557 Y-16.952 E16.53372
G1 X12.802 Y-16.547 E16.54936
G1 X12.9 Y-16.386 E16.55314
G1 X13.43 Y-15.513 E16.57327
G1 X13.544 Y-15.472 E16.5777
G1 X13.692 Y-14.893 E16.59532
G1 X13.783 Y-14.689 E16.59971
G1 X13.942 Y-14.335 E16.60882
G1 X13.984 Y-14.243 E16.60966
G1 X14.406 Y-13.307 E16.62979
G1 X14.562 Y-13.254 E16.63658
G1 X14.815 Y-12.44 E16.67091
G1 X15.048 Y-11.693 E16.70726
G1 X15.152 Y-11.361 E16.72661
G1 X15.532 Y-9.292 E16.84273
G1 X15.574 Y-9.064 E16.85559
G1 X15.663 Y-7.834 E16.92534
G1 X15.721 Y-6.802 E16.98363
G1 X15.726 Y-6.727 E16.98792
G1 X15.726 Y11.233 E17.99819
G1 X15.722 Y11.301 E18.0021
G1 X15.575 Y13.631 E18.13211
G1 X15.573 Y13.649 E18.13324
G1 X15.566 Y13.686 E18.13546
G1 X15.125 Y16.002 E18.26616
G1 X15.119 Y16.03 E18.26785
G1 X15.111 Y16.056 E18.26945
G1 X14.385 Y18.298 E18.40084
G1 X14.372 Y18.336 E18.40321
G1 X14.365 Y18.351 E18.4042
G1 X13.367 Y20.472 E18.53562
G1 X13.35 Y20.508 E18.53798
G1 X13.341 Y20.522 E18.53902
G1 X12.89 Y21.233 E18.58448
G1 X12.071 Y22.522 E18.66682
G1 X12.054 Y22.548 E18.66866
G1 X12.038 Y22.567 E18.6702
G1 X11.38 Y23.363 E18.72565
G1 X10.533 Y24.386 E18.79694
G1 X10.511 Y24.412 E18.79895
G1 X10.501 Y24.422 E18.79979
G1 X9.618 Y25.28 E18.86743
G1 X9.239 Y25.649 E18.89693
G1 X8.77 Y26.051 E18.932
G1 X8.736 Y26.076 E18.93463
G1 X7.597 Y26.936 E19.01376
G1 X7.406 Y27.08 E19.02716
G1 X6.806 Y27.48 E19.06778
G1 X6.78 Y27.495 E19.06965
G1 X5.442 Y28.269 E19.15651
G1 X5.347 Y28.316 E19.16253
G1 X4.681 Y28.648 E19.20418
G1 X4.66 Y28.657 E19.20553
G1 X3.326 Y29.222 E19.28812
G1 X3.165 Y29.278 E19.29737
G1 X2.964 Y29.349 E19.30765
G1 X2.435 Y29.535 E19.33088
G1 X1.101 Y29.916 E19.39163
G1 X1.08 Y29.92 E19.39296
G1 X0.711 Y29.999 E19.41071
G1 X0.622 Y30.019 E19.41442
G1 X0.561 Y30.033 E19.41832
G1 X-.604 Y30.243 E19.49215
G1 X-1.184 Y30.334 E19.52876
G1 X-1.421 Y30.355 E19.5436
G1 X-2.245 Y30.431 E19.5952
G1 X-2.288 Y30.435 E19.5979
G1 X-3.5 Y30.474 E19.67352
G1 X-4.691 Y30.436 E19.74783
G1 X-4.712 Y30.435 E19.74914
G1 X-5.822 Y30.333 E19.81866
G1 X-7.087 Y30.138 E19.89848
G1 X-7.108 Y30.134 E19.89981
G1 X-7.622 Y30.02 E19.93264
G1 X-8.848 Y29.701 E20.01165
G1 X-9.422 Y29.541 E20.04881
G1 X-9.439 Y29.536 E20.04991
G1 X-9.453 Y29.531 E20.05084
G1 X-9.919 Y29.364 E20.08171
G1 X-11.074 Y28.904 E20.15924
G1 X-11.652 Y28.659 E20.19839
G1 X-11.69 Y28.643 E20.20096
G1 X-12.345 Y28.318 E20.24656
G1 X-12.429 Y28.276 E20.25242
G1 X-13.778 Y27.494 E20.34966
G1 X-13.808 Y27.477 E20.35181
G1 X-14.42 Y27.072 E20.39758
G1 X-14.597 Y26.938 E20.41142
G1 X-15.735 Y26.076 E20.50045
G1 X-15.761 Y26.056 E20.5025
G1 X-16.186 Y25.693 E20.53735
G1 X-16.521 Y25.21 E20.57401
G1 X-16.538 Y25.193 E20.57551
G1 X-17.408 Y24.322 E20.65228
G1 X-17.842 Y23.888 E20.69056
G1 X-17.942 Y23.86 E20.69703
G1 X-18.129 Y23.512 E20.72167
G1 X-18.303 Y23.29 E20.73926
G1 X-18.94 Y22.477 E20.80367
G1 X-19.3 Y22.018 E20.84005
G1 X-19.372 Y21.994 E20.84478
G1 X-19.516 Y21.629 E20.86925
G1 X-19.795 Y21.167 E20.90291
G1 X-20.228 Y20.452 E20.95504
G1 X-20.522 Y19.966 E20.99046
G1 X-20.569 Y19.95 E20.99356
G1 X-20.666 Y19.591 E21.01675
G1 X-20.91 Y19.045 E21.05404
G1 X-21.014 Y18.814 E21.06984
G1 X-21.486 Y17.765 E21.14158
G1 X-21.579 Y17.736 E21.14765
G1 X-21.791 Y17.053 E21.19225
G1 X-21.913 Y16.661 E21.21786
G1 X-21.95 Y16.545 E21.22545
G1 X-22.165 Y15.854 E21.27058
G1 X-22.396 Y14.591 E21.35065
G1 X-22.54 Y13.808 E21.4003
G1 X-22.584 Y13.568 E21.41552
G1 X-22.72 Y11.3 E21.55721
G1 X-22.726 Y11.217 E21.5624
G1 X-22.73 Y7.404 E21.80019
G1 X-22.729 Y6.429 E21.86099
G1 X-22.726 Y3.979 E22.01378
G1 X-22.725 Y3.873 E22.02039
G1 X-22.724 Y3.815 E22.02401
G1 X-22.549 Y3.873 E22.03001
G1 X-22.267 Y3.979 E22.04479
G1 X-22.251 Y6.429 E22.18795
G1 X-22.255 Y7.406 E22.24602
G1 X-22.273 Y11.219 E22.46669
G1 X-22.274 Y11.273 E22.46963
G1 X-22.12 Y13.536 E22.59848
G1 X-22.106 Y13.728 E22.60921
G1 X-22.078 Y14.532 E22.64808
G1 X-21.82 Y15.782 E22.70172
G1 X-21.679 Y16.46 E22.72885
G1 X-21.549 Y16.547 E22.73586
G1 X-21.488 Y16.958 E22.75455
G1 X-21.254 Y17.62 E22.7834
G1 X-21.234 Y17.675 E22.78534
G1 X-20.855 Y18.742 E22.8162
G1 X-20.627 Y18.918 E22.82572
G1 X-20.369 Y19.445 E22.849
G1 X-20.209 Y19.773 E22.86622
G1 X-20.193 Y19.804 E22.86702
G1 X-19.957 Y20.287 E22.88962
G1 X-19.538 Y21.011 E22.92189
G1 X-19.247 Y21.449 E22.94214
G1 X-19.034 Y21.768 E22.96023
G1 X-19.001 Y21.818 E22.96302
G1 X-18.692 Y22.281 E22.98617
G1 X-18.062 Y23.101 E23.02636
G1 X-17.888 Y23.3 E23.03646
G1 X-17.634 Y23.59 E23.05468
G1 X-17.577 Y23.656 E23.05876
G1 X-17.188 Y24.101 E23.08297
G1 X-16.316 Y24.971 E23.1309
G1 X-15.885 Y25.349 E23.15918
G1 X-15.465 Y25.718 E23.19077
G1 X-14.331 Y26.585 E23.27001
G1 X-14.168 Y26.694 E23.28088
G1 X-13.554 Y27.106 E23.32254
G1 X-12.204 Y27.884 E23.40989
G1 X-12.146 Y27.917 E23.41353
G1 X-11.492 Y28.237 E23.4543
G1 X-11.477 Y28.245 E23.45518
G1 X-10.904 Y28.471 E23.49025
G1 X-9.747 Y28.928 E23.56264
G1 X-9.301 Y29.105 E23.59013
G1 X-8.733 Y29.251 E23.6236
G1 X-7.506 Y29.567 E23.69717
G1 X-7.019 Y29.693 E23.72585
G1 X-5.762 Y29.851 E23.79969
G1 X-4.677 Y29.988 E23.86328
G1 X-3.502 Y29.986 E23.93183
G1 X-2.287 Y29.982 E24.00314
G1 X-1.454 Y30.002 E24.04528
G1 X-1.234 Y29.972 E24.0551
G1 X-.652 Y29.893 E24.0814
G1 X0.519 Y29.733 E24.12965
G1 X0.558 Y29.727 E24.13053
G0 F3600 X0.245 Y29.265
;TYPE:WALL-OUTER
G1 F900 X0.32 Y29.133 E24.14
G1 X0.915 Y29.079 E24.17725
G1 X2.56 Y28.62 E24.28376
G1 X2.695 Y28.437 E24.29794
G1 X4.278 Y27.787 E24.40466
G1 X4.911 Y27.475 E24.44867
G1 X6.29 Y26.681 E24.5479
G1 X7.04 Y26.178 E24.60422
G1 X8.148 Y25.331 E24.6912
G1 X8.973 Y24.605 E24.75973
G1 X9.823 Y23.759 E24.83452
G1 X10.674 Y22.783 E24.91527
G1 X11.285 Y21.99 E24.9777
G1 X12.113 Y20.747 E25.07084
G1 X12.517 Y20.049 E25.12114
G1 X13.491 Y17.976 E25.26398
G1 X14.202 Y15.794 E25.40709
G1 X14.632 Y13.54 E25.55019
G1 X14.775 Y11.257 E25.69285
G1 X14.774 Y-6.759 E26.81637
G1 X14.616 Y-9.148 E26.96568
G1 X14.148 Y-11.488 E27.1145
G1 X14.031 Y-12.226 E27.1611
G1 X13.489 Y-13.816 E27.26586
G1 X13.343 Y-13.872 E27.27561
G1 X13.179 Y-14.446 E27.31284
